!!!OTL: 1994. Abendlied.
!!!ODT: 1669
!!!ARE: Europa, Mitteleuropa, Deutschland
!!!SCT: E1994
!!!TXL: @@DE
!!!YEM: Copyright 1995, estate of Helmut Schaffrath.
**kern	**text
*ICvox	*
*M4/4	*
*met(c)	*
*k[f#c#]	*
*D:	*
!LO:TX:a:t=Langsam.	!
!LO:TX:a:t=Weltl. Mel. 1669. Noch jetʒt viel geſungen ʒu geiſtlichen Texten.	!
{4d	Jn
=1	=1
4f#	die-
4g	-ſer
4a;	Nacht
4a	von
=2	=2
4b/	dei-
4b/	-ner
4a	Lieb
4g	und
=3	=3
2.f#;}	Macht,
{8f#L	o
8gJ	.
=4	=4
4a	Va-
4a	-ter,
4g	treu
4f#	be-
=5	=5
2.e;}	-wacht
{4a	laß
=6	=6
4dd	Ruh
4cc#	mich
2b	fin-
=7	=7
4a;	-den!
4a	Wend
4b	jä-
4cc#	-hen
=8	=8
2.dd;}	Tod
{4a	und
=9	=9
4b/	je-
4b/	-de
4a	Er-
4g	-den-
=10	=10
2.f#;}	-noth
{8f#L	von
8gJ	.
=11	=11
4a	mir,
4a	o
4g	gro-
4f#	-ßer
=12	=12
2.e;}	Gott,
{4a	und
=13	=13
4g	al-
4f#	-le
2e	Sün-
=14	=14
2d	-den!
4r}	.
==	==
!!!AGN: geistlich, Dank -, Lob - Lied; Abend - Lied
!!!ONB: ESAC (Essen Associative Code) Database: ERK3
!!!AMT: simple quadruple
!!!AIN: vox
!!!EED: Helmut Schaffrath
!!!EEV: 1.0
!!!GTL: Geistliche Lieder. 2. Gottesglaube und Gottesverehrung in Liedern: Bitt-, Lob-, Dank- und Trostlieder, nebst einigen Lehrgesaengen. 
!!!URL-scan: https://rosdok.uni-rostock.de/mcrviewer/recordIdentifier/rosdok_ppn745177999/iview2/phys_0703.iview2?x=188.96815741118007&y=528.9884929312393&scale=0.7014306698522891&rotation=0&layout=singlePageLayout
!!!ENC: Anna Maria Matuszewska
!!!EEV: 2025/10/01
*-	*-
